X:163
T:Tom Dooley
C:anon., arr. Frank Nordberg
O:USA
Z:Transcribed by Frank Nordberg - http://www.musicaviva.com
F:http://abc.musicaviva.com/tunes/usa/tom-dooley-d/tom-dooley-d-gtr2.abc
V:1 Program 1 25 up %Acoustic guitar
V:2 Program 1 25 merge down %Acoustic guitar
M:2/4
L:1/8
Q:1/4=112
K:D -8va
V:1
z A BA|z A BA|z A3|z4||AA z A|B2d2|z f =f^f|
V:2
D4|A,4|D2A,2|B,2C2||D2 z2|A,2 z2|D2 z2|
%
V:1
z A BA|z A zA|B2d2|e2 z2|z4|AA z A|B2d2|z e ^de|
V:2
A,2 z2|D2 z2|A,2 z2|A,2A,2|E,E,F,E,|A,2 z2|E,2 z2|A,2 z2|
%
V:1
z4|ee z f|d2B2|d2 z2|z4|]
V:2
E,2A,2|C2 z2|A,2E2|DA, B,A,|D2 z2|]
W:
W:
W:  From Musica Viva - http://www.musicaviva.com
W:  the Internet center for free sheet music downloads.

